src/svg/uf191-caret-square-o-left,toggle-left.svg

<!-- Generated by IcoMoon.io -->
<svg version="1.1" xmlns="http://www.w3.org/2000/svg" width="27" height="32" viewBox="0 0 27 32">
<path d="M18.286 10.286v11.429c0 0.625-0.518 1.143-1.143 1.143-0.232 0-0.464-0.071-0.661-0.214l-8-5.714c-0.304-0.214-0.482-0.554-0.482-0.929 0-0.357 0.179-0.714 0.482-0.929l8-5.714c0.196-0.143 0.429-0.214 0.661-0.214 0.625 0 1.143 0.518 1.143 1.143zM22.857 24.571v-17.143c0-0.304-0.268-0.571-0.571-0.571h-17.143c-0.304 0-0.571 0.268-0.571 0.571v17.143c0 0.304 0.268 0.571 0.571 0.571h17.143c0.304 0 0.571-0.268 0.571-0.571zM27.429 7.429v17.143c0 2.839-2.304 5.143-5.143 5.143h-17.143c-2.839 0-5.143-2.304-5.143-5.143v-17.143c0-2.839 2.304-5.143 5.143-5.143h17.143c2.839 0 5.143 2.304 5.143 5.143z"></path>
</svg>

<svg xmlns="http://www.w3.org/2000/svg" width="27" height="32"><path d="M18.286 10.286v11.429c0 .625-.518 1.143-1.143 1.143-.232 0-.464-.071-.661-.214l-8-5.714A1.126 1.126 0 0 1 8 16.001c0-.357.179-.714.482-.929l8-5.714c.196-.143.429-.214.661-.214.625 0 1.143.518 1.143 1.143zm4.571 14.285V7.428a.587.587 0 0 0-.571-.571H5.143a.587.587 0 0 0-.571.571v17.143c0 .304.268.571.571.571h17.143a.587.587 0 0 0 .571-.571zm4.572-17.142v17.143a5.145 5.145 0 0 1-5.143 5.143H5.143A5.145 5.145 0 0 1 0 24.572V7.429a5.145 5.145 0 0 1 5.143-5.143h17.143a5.145 5.145 0 0 1 5.143 5.143z"/></svg>
